X: 6819
T: Charlie Hardie
R: reel
M: 4/4
K: Emajor
BeGe BeGe|cfAf cfAf|egBg egBg|gbaf geec|
BeGe BeGe|cfAf cfAf|egBg egBg|gbaf geec|
BeGe BeGe|cfAf cfAf|egBg egBg|gbaf geec|
BeGe BeGe|cfAf cfAf|egBg efge|abc'e e'eea|
gebe gbeg|fB~B2 defa|g/f/e be gbe2|abc'e e'eea|
g2be gbeg|fB~B2 defa|gbag fedc|BAGF Eeef|
(3gfe be gbeg|fB~B2 defa|g/f/e be gbe2|abc'e e'eea|
gebe gbeg|fB~B2 defa|gbag fedc|BAGF Eeec||

